X:1
T:[ID 4-25v]
T:[ID 4-25v]
T:Bezeichnung standardisiert: Polonaise Polonoise
T:Urheber unbekannt Datum in der hier transkribierten schriftlichen Quelle: 1767
C:Urheber unbekannt
C:Datum in der hier transkribierten schriftlichen Quelle: 1767
L:1/8
M:3/4
K:Emin
V:1 treble 
V:1
 ee/^d/ ee/d/ eg | fB B4 | b/a/g/f/ b/a/g/f/ b/a/g/f/ | gg/e/ ff/^d/ e2 | c'A/G/ Ac'ba | %5
 bG/F/ Gbag | aF/E/ Fagf | gE/^D/ Egfe | ^d/f/b d/f/b e/g/b | ^d/f/b B4 | ^d/f/b d/f/b e/g/b | %11
 B6 :: gg/f/ gg/f/ gb | ad d4 | d'/c'/b/a/ d'/c'/b/a/ d'/c'/b/a/ | bb/g/ aa/f/ g2 | bb/g/ gbag | %17
 aa/f/ fagf | gg/e/ egfe | ^d/e/f/d/ B4 | ^DD/E/ Df^dB | EE/F/ EgeB | ^DD/E/ Df^dB | EE/F/ EgeB | %24
 c'c'/a/ aa/f/ gf/e/ | ^dd/^c/ BB/A/ GG/F/ | G/B/e G/B/e F/A/^d | G/B/e E4 | %28
 g/b/c' g/b/c' f/b/^d' | g/b/e' e4 :| %30

